!!!!SEGMENT: pl-wtm--iii-40-019_bauerfeind-wladyslaw--passion-d-amour.krn
!!!cenid: 19xx:27
!!!COM: Bauerfeind, Władysław
!!!COM-rismID: pe50046019
!!!CDT: 1880-1939
!!!CNT: Polish
!!!OTL: Passion d’amour
!!!PDT:
!!!AGN: Secular
!!!YEC: Copyright 2022 Narodowy Instytut Fryderyka Chopina (https://polishscores.org)
!!!YEM: License CC-BY-4.0 (https://creativecommons.org/licenses/by/4.0)
!!!SMS-siglum: PL-Wtm
!!!SMS-shelfmark: III.40.019
!!!SMS-variant:
!!!SMS-altvar:
!!!SMS-shelfwork: W
!!!NIFC-rismSourceID: 1001140908
!!!NIFC-rismChildID: 1001140908
!!!NIFC-islandoraID: pl-wtm:6391
!!!URL-pdf-islandora: https://repozytorium.nifc.pl/islandora/object/pl-wtm%3A6391/datastream/PDF/view
!!!URL-scan: https://polish.musicsources.pl/pl/lokalizacje/galeria/druki-muzyczne/15934/2 @EN{Scan on Polish Music Sources Website} @PL{Skany w portalu Dziedzictwo Muzyki Polskiej w otwartym dostępie}
!!!IIIF:
!!!ONB-nifc:
!!!AIN: 1 forte
!!!key: E
**kern	**kern	**dynam
*part1	*part1	*part1
*staff2	*staff1	*
*I"Piano	*I"Piano	*
*I'P-no	*I'P-no	*
*Iforte	*Iforte	*
*ICklav	*ICklav	*
*clefF4	*clefG2	*
*k[f#c#g#d#]	*k[f#c#g#d#]	*
*E:	*E:	*
*M4/4	*M4/4	*
*met(c)	*met(c)	*
!	!LO:TX:i:a:t=Andante con sentimento e cantabile.	!
2r	8r	p
.	8g#/L	.
.	8qqg#\L	.
.	8qqb\J	.
.	8.a/	.
.	16g#/Jk	.
=1	=1	=1
2GG#/ 2F#	2B#X/ 2d#	.
2r	8d#/L	.
.	24d#/L	.
.	24e/	.
.	24f#/JJ	.
.	8.e/L	.
.	16d#/Jk	.
=2	=2	=2
2C#/ 2E	2G#/ 2c#	.
2r	8r	.
.	8c#/L	<
.	8d#/	.
.	8e/J	[[
=3	=3	=3
2AAA/ 2AA	2F#/ 2c# 2f#	.
.	8qf#/	<
2r	16f#/LLM<	.
.	16g#/J	.
.	8b/	[ >
.	8.a/	.
.	16g#/Jk	]]
!!LO:LB:g=original
=4	=4	=4
2GGG#/ 2GG#	2G#/ 2B#X 2d# 2g#	.
8r	8r	.
8C#/L	8Bn/L 8c# 8e#X 8g#	<
8.C#/	8.B/ 8.c# 8.e# 8.a	.
16C#/Jk	16B/Jk 16c# 16e# 16g#	[ >
=5	=5	=5
2FF#/	2A#X/ 2c# 2en 2f#	.
8r	8r	]
8BB/L	8An/L 8B 8d# 8f#	<
8.BB/	8.A/ 8.B 8.d# 8.g#	.
16AA/Jk	16A/Jk 16B 16d# 16f#	.
=6	=6	=6
2GG#/ 2G#	2B/ 2e 2b	.
8r	8r	[
8GGn/L 8Gn	8B/L 8e#X 8b	<
8.GG/ 8.G	8.B/ 8.e# 8.b	.
16GG/Jk 16G	16c#/Jk 16e# 16cc#	.
=7	=7	=7
2FF#/ 2F#	2d#/ 2f# 2b 2dd#	[ f
8r	8r	[
8FF#/L 8C#	8A#X/L 8e 8f#	.
8.FF#/ 8.D#	8.A#/ 8.d# 8.f#	pp
16FF#/Jk 16E	16A#/Jk 16c# 16f#	.
!!LO:LB:g=original
=8	=8	=8
*M3/4	*M3/4	*
2BBB/ 2BB	2A/ 2B 2d# 2f# 2b	.
4r	4B/	.
=9	=9	=9
4G#\	4B/ 4e 4b	fp
4F##X\	4A#X/ 4e 4a#X	.
4G#\	4B/ 4e 4b	.
=10||	=10||	=10||
*	*^	*
!	!LO:TX:i:a:t=Tempo di Valse.	!	!
4EE/ 4E	2c#/ 2cc#	4r	.
2E\ 2G#	.	4e\ 4g#	.
.	4B/ 4e 4g# 4b	4ryy	.
*	*v	*v	*
=11	=11	=11
4EE#X/	4B/ 4dn 4fn 4b	.
2E#X\	4.A/ 4.d 4.f 4.a	.
.	8G#/ 8d 8f 8g#	.
=12	=12	=12
*	*^	*
4FF#/	2.A/ 2.a	4r	.
2F#\	.	4c#\ 4f#	.
.	.	4c#\ 4f#	.
*	*v	*v	*
=13	=13	=13
4FF#:/ 4C#: 4A:	4c#/ 4f# 4cc#	<
4G#\	4B#X/ 4f# 4b#X	.
4A\	4c#/ 4f# 4cc#	[[
!!LO:LB:g=original
=14	=14	=14
*	*^	*
4BBB/ 4BB	2d#/ 2dd#	4r	.
2D#\ 2F# 2A 2B	.	4f#\ 4a	.
.	4c#/ 4f# 4a 4cc#	4ryy	.
*	*v	*v	*
=15	=15	=15
4DD#/	4c#/ 4f# 4a 4cc#	.
2D#\ 2F# 2A	4.B/ 4.d# 4.f# 4.b	.
.	8A#X/ 8d# 8f# 8a#X	.
=16	=16	=16
*	*^	*
2.EE:/ 2.BB: 2.G#:	2.B/ 2.b	4r	.
.	.	4e\ 4g#	.
.	.	4e\ 4g#	.
*	*v	*v	*
=17	=17	=17
4G#\	4e/ 4b 4ee	f
4F##X\	4d#/ 4b 4dd#	.
4G#\	4e/ 4b 4ee	.
=18	=18	=18
*	*^	*
4EE/ 4E	2f#/ 2ff#	4r	.
2E\ 2G# 2B	.	4g#\ 4b	.
.	4e/ 4g# 4b 4ee	4ryy	.
*	*v	*v	*
=19	=19	=19
4GG#/	4e/ 4g# 4b 4ee	.
2E\ 2G# 2B	4d#/ 4g# 4b 4dd#	.
.	4c##X/ 4g# 4b 4cc##X	.
!!LO:LB:g=original
=20	=20	=20
*	*^	*
4FF#/	2.d#/ 2.dd#	4r	>
2D#\ 2F# 2A	.	4a\ 4b	.
.	.	4a\ 4b	.
*	*v	*v	*
=21	=21	=21
4BBB/ 4BB	4d#/ 4a 4b 4dd#	.
2D#\ 2F# 2A 2B	4c##X/ 4a 4b 4cc##X	.
.	4d#/ 4a 4b 4dd#	.
=22	=22	=22
*	*^	*
4FF#/	2e/ 2ee	4r	.
2D#\ 2F# 2A 2B	.	4a\ 4b	.
.	4d#/ 4a 4b 4dd#	4ryy	.
*	*v	*v	*
=23	=23	=23
4BBB/ 4BB	4d#/ 4a 4b 4dd#	.
2D#\ 2F# 2A	4.c#/ 4.f# 4.a 4.cc#	.
.	8B#X/ 8f# 8a 8b#X	]]
=24	=24	=24
*	*^	*
2.EE:/ 2.BB: 2.G#:	2.c#/ 2.cc#	4r	.
.	.	4e\ 4g#	.
.	.	4e\ 4g#	.
*	*v	*v	*
=25	=25	=25
4G#\	4B/ 4e 4b	.
4F##X\	4A#X/ 4e 4a#X	.
4G#\	4B/ 4e 4b	.
!!LO:PB:g=original
=26	=26	=26
*	*^	*
4EE/ 4E	2c#/ 2cc#	4r	.
2E\ 2G#	.	4e\ 4g#	.
.	4B/ 4e 4g# 4b	4ryy	.
*	*v	*v	*
=27	=27	=27
4EE#X/	4B/ 4dn 4fn 4b	.
2E#X\	4.A/ 4.d 4.f 4.a	.
.	8G#/ 8d 8f 8g#	.
=28	=28	=28
*	*^	*
4FF#/	2.A/ 2.a	4r	.
2F#\	.	4c#\ 4f#	.
.	.	4c#\ 4f#	.
*	*v	*v	*
=29	=29	=29
4FF#:/ 4C#: 4A:	4c#/ 4f# 4cc#	<
4G#\	4B#X/ 4f# 4b#X	.
4A\	4c#/ 4f# 4cc#	[[
=30	=30	=30
*	*^	*
4BBB/ 4BB	2d#/ 2dd#	4r	.
2D#\ 2F# 2A 2B	.	4f#\ 4a	.
.	4c#/ 4f# 4a 4cc#	4ryy	.
*	*v	*v	*
=31	=31	=31
4DD#/	4c#/ 4f# 4a 4cc#	.
2D#\ 2F# 2A	4.B/ 4.d# 4.f# 4.b	.
.	8A#X/ 8d# 8f# 8a#X	.
=32	=32	=32
*	*^	*
2.EE:/ 2.BB: 2.G#:	2.B/ 2.b	4r	.
.	.	4e\ 4g#	.
.	.	4e\ 4g#	.
*	*v	*v	*
=33	=33	=33
4G#\	4e/ 4b 4ee	f
4F##X\	4d#/ 4b 4dd#	.
4G#\	4e/ 4b 4ee	.
!!LO:LB:g=original
=34	=34	=34
*	*^	*
4EE/ 4E	2f#/ 2ff#	4r	.
2E\ 2G# 2B	.	4g#\ 4b	.
.	4e/ 4g# 4b 4ee	4ryy	.
*	*v	*v	*
=35	=35	=35
4GG#/	4e/ 4g# 4b 4ee	<
2E\ 2G# 2B	4.g#\ 4.gg#	.
.	8B#X/ 8b#X	[[
=36	=36	=36
*	*^	*
4AA/	2d#/ 2dd#	4r	>
2F#\ 2A	.	4f#\ 4a	.
.	4c#/ 4f# 4a 4cc#	4ryy	.
*	*v	*v	*
=37	=37	=37
2.FF#:/ 2.C#: 2.A:	4c#/ 4f# 4a 4cc#	.
.	4c#/ 4f# 4a	.
.	4c#/	.
=38	=38	=38
*	*^	*
2.BBB/	2G#/ 2g#	4r	.
.	.	4B\ 4d#	.
.	4B/ 4d# 4f# 4b	4ryy	.
=39	=39	=39	=39
2.BB/	2G#/ 2g#	4r	.
.	.	4B\ 4d#	.
.	4F#/ 4A 4d# 4f#	4ryy	]
=40	=40	=40	=40
4EE/	2.E/ 2.e	4r	.
4BB/	.	4G#\ 4B	.
4GG#/	.	4G#\ 4B	.
*	*v	*v	*
=41	=41	=41
4EE/	8r	.
.	8g#/	.
.	8qb/	p
2r	4.a/	.
.	8g#/	.
!!LO:LB:g=original
=42||	=42||	=42||
!	!LO:TX:i:a:t=arioso	!
4BBB#X/ 4BB#X	2.d#/	.
4D#\ 4F# 4G# 4B#X	.	.
4D#\ 4F# 4G# 4B#	.	.
=43	=43	=43
4GGG#/ 4GG#	8r	.
.	8d#/	.
.	8qf#/	.
4D#\ 4F# 4G#	4.e/	.
4D#\ 4F# 4G#	.	.
.	8B#X/	.
=44	=44	=44
4CC#/ 4C#	[2.c#/	.
4E\ 4G#	.	.
4E\ 4G#	.	.
=45	=45	=45
4C#/	4c#/]	.
4E\ 4G#	4.d#/	.
4E\ 4G#	.	.
.	8e/	.
=46	=46	=46
4FF#/ 4F#	[2.f#/	<
4A\ 4c#	.	.
4A\ 4c#	.	.
=47	=47	=47
4F#\	4f#/]	.
4A\ 4c#	4.g#/	.
4A\ 4c#	.	.
.	8qb/	.
.	8a/	[[
=48	=48	=48
4CC#/ 4C#	2.g#/	>]
4E\ 4G# 4c#	.	.
4E\ 4G# 4c#	.	.
=49	=49	=49
4C#/	8r	.
.	8g#/	.
.	8qb/	.
4E\ 4G# 4c#	4.a/	.
4E\ 4G# 4c#	.	.
.	8g#/	.
!!LO:LB:g=original
=50	=50	=50
4BBB#X/ 4BB#X	2.f#/ 2.dd#	.
4D#\ 4F# 4G# 4B#X	.	.
4D#\ 4F# 4G# 4B#	.	.
=51	=51	=51
4D#\	8r	.
.	8g#/	.
.	8qb/	.
4F#\ 4G# 4B#X	4.a/	.
4F#\ 4G# 4B#	.	.
.	8g#/	.
=52	=52	=52
4CC#/ 4C#	2.e/ 2.cc#	>]
4E\ 4G# 4c#	.	.
4E\ 4G# 4c#	.	.
=53	=53	=53
4C#/	8r	.
.	8g#/	.
.	8qb/	.
4E\ 4G# 4c#	4.a/	.
4E\ 4G# 4c#	.	.
.	8g#/	.
=54	=54	=54
4AAA/ 4AA	[2.c#/ [2.f#	.
4F#\ 4A	.	.
4F#\ 4A	.	.
=55	=55	=55
4C#/	4c#/] 4f#]	>
4F#\ 4A	4.e/	.
4F#\ 4A	.	.
.	8f#/	.
=56	=56	=56
4GGG#/ 4GG#	2.B#X/ 2.g#	]]
4GG#/ 4D#	.	.
4BB#X/	.	.
=57	=57	=57
4G#\	8r	.
.	8g#/	.
.	8qb/	.
2r	4.a/	.
.	8g#/	.
!!LO:LB:g=original
=58	=58	=58
4BBB#X/ 4BB#X	2.d#/	.
4D#\ 4F# 4G# 4B#X	.	.
4D#\ 4F# 4G# 4B#	.	.
=59	=59	=59
4GGG#/ 4GG#	8r	.
.	8d#/	.
.	8qf#/	.
4D#\ 4F# 4G#	4.e/	.
4D#\ 4F# 4G#	.	.
.	8B#X/	.
=60	=60	=60
4CC#/ 4C#	[2.c#/	.
4E\ 4G#	.	.
4E\ 4G#	.	.
=61	=61	=61
4C#/	4c#/]	<
4E\ 4G#	4.d#/	.
4E\ 4G#	.	.
.	8e/	.
=62	=62	=62
4FF#/ 4F#	[2.f#/	.
4A\ 4c#	.	.
4A\ 4c#	.	.
=63	=63	=63
4F#\	4f#]/	.
4A\ 4c#	4.g#/	.
4c#\	.	.
.	8qb/	.
.	8a/	[[
=64	=64	=64
4CC#/ 4C#	2.g#/	>]
4E\ 4G# 4c#	.	.
4E\ 4G# 4c#	.	.
=65	=65	=65
4C#/	8r	<
.	8g#/	.
.	8qb/	.
4E\ 4G# 4c#	4.a/	.
4E\ 4G# 4c#	.	.
.	8g#/	[[
!!LO:LB:g=original
=66	=66	=66
4BBB#X/ 4BB#X	2.f#/ 2.dd#	.
4F#\ 4G# 4B#X	.	.
4F#\ 4G# 4B#	.	.
=67	=67	=67
4GG#/	8r	<
.	8g#/	.
.	8qb/	.
4F#\ 4G# 4B#X	4.a/	.
4F#\ 4G# 4B#	.	.
.	8g#/	[[
=68	=68	=68
4CC#/ 4C#	2.e/ 2.g# 2.cc# 2.ee	<[
4E\ 4G# 4c#	.	.
4E\ 4G# 4c#	.	.
=69	=69	=69
4FFF#/ 4FF#	4r	f
2F#\ 2A 2c#	4f#\ 4a 4cc# 4ff#	.
.	4dd#\	.
=70	=70	=70
4GGG#/ 4GG#	4.e/ 4.g# 4.dd#	>
2E\ 2G# 2c#	.	.
.	8cc#/L	.
.	8g#/	.
.	8e/J	]]
=71	=71	=71
4GGG#/	4r	>
2GG#/	4.F#/ 4.B#X 4.e	.
.	8d#/	.
=72	=72	=72
4CC#/	[2.E/ [2.G# [2.c#	.
4EE/	.	.
4GG#/	.	.
=73	=73	=73
4C#/	4E/] 4G#] 4c#]	.
2r	4r	]
.	4G#/	.
=74||	=74||	=74||
*k[fncngndnb-e-a-d-g-]	*k[fncngndnb-e-a-d-g-]	*
!!LO:PB:g=original
*	*^	*
!	!LO:TX:i:a:t=dolce cantabile e ben marcato la melodia	!	!
2.DD-:/ 2.AA-: 2.F:	4r	2A-\	p <
.	4d-/ 4f 4a-	.	.
.	4r	4An\	.
=75	=75	=75	=75
2.DDn/ 2.Dn	4r	2B-\	.
.	4dn/ 4f 4b-	.	.
.	4r	4F\	.
=76	=76	=76	=76
2.EE-/ 2.E-	4r	[2.G-\	[
.	4B-/ 4e- 4g-	.	.
.	4B-/ 4e- 4g-	.	.
=77	=77	=77	=77
2.BB-/	4r	2.G-\]	.
.	4B-/ 4e- 4g-	.	.
.	4B-/ 4e- 4g-	.	.
=78	=78	=78	=78
2.EE-:/ 2.BB-: 2.G-:	4r	2B-\	<
.	4e-/ 4g- 4b-	.	.
.	4r	4Bn\	.
=79	=79	=79	=79
2.AAA-/ 2.AA-	4r	2c\	.
.	4e-/ 4g- 4cc	.	.
.	4r	4Gn\	[
!!LO:LB:g=original
=80	=80	=80	=80
2.FF/ 2.D-	4r	[2.A-\	.
.	4d-/ 4f 4a-	.	.
.	4d-/ 4f 4a-	.	.
=81	=81	=81	=81
2.AA-/ 2.F	4r	2.A-\]	.
.	4d-/ 4f 4a-	.	.
.	4d-/ 4f 4a-	.	.
=82	=82	=82	=82
4DD-:/ 4AA-: 4F:	4r	2A-\	<
4D-\	4d-/ 4f 4a-	.	.
4F\	4r	4d-\	.
=83	=83	=83	=83
4A-\	4r	2d-\	.
4F\	4f/ 4a- 4dd-	.	.
4D-\	4r	4An\	[
=84	=84	=84	=84
2.GG-/ 2.G-	4r	2.c\	.
.	4e-/ 4g- 4cc	.	.
.	4e-/ 4g- 4cc	.	.
=85	=85	=85	=85
2.EE-/ 2.E-	4r	2.B-\	.
.	4e-/ 4g- 4b-	.	.
.	4e-/ 4g- 4b-	.	.
=86	=86	=86	=86
2.AAA-/ 2.AA-	4r	2.A-\	>
.	4c/ 4e- 4a-	.	.
.	4c/ 4e- 4a-	.	.
!!LO:LB:g=original
=87	=87	=87	=87
2.CC/ 2.C	4r	2E-\	.
.	4G-/ 4c 4e-	.	.
.	4r	4En\	.
=88	=88	=88	=88
2.DD-/ 2.D-	4r	[2.F\	.
.	4A-/ 4d- 4f	.	.
.	4A-/ 4d- 4f	.	.
=89	=89	=89	=89
4BB-/	4r	2.F\]	]
4AA-/	4A-/ 4d- 4f	.	.
4FF/	4A-/ 4d- 4f	.	.
=90	=90	=90	=90
2.DD-:/ 2.AA-: 2.F:	4r	2A-\	<
.	4d-/ 4f 4a-	.	.
.	4r	4An\	.
=91	=91	=91	=91
2.DDn/ 2.Dn	4r	2B-\	.
.	4dn/ 4f 4b-	.	[
.	4r	4F\	.
=92	=92	=92	=92
2.EE-/ 2.E-	4r	[2.G-\	.
.	4B-/ 4e- 4g-	.	.
.	4B-/ 4e- 4g-	.	.
=93	=93	=93	=93
2.BB-/	4r	2.G-\]	.
.	4B-/ 4e- 4g-	.	.
.	4B-/ 4e- 4g-	.	.
!!LO:LB:g=original
=94	=94	=94	=94
2.EE-:/ 2.BB-: 2.G-:	4r	2B-\	.
.	4e-/ 4g- 4b-	.	.
.	4r	4Bn\	.
=95	=95	=95	=95
2.AAA-/ 2.AA-	4r	2c\	.
.	4e-/ 4g- 4cc	.	.
.	4r	4Gn\	.
=96	=96	=96	=96
2.FF/ 2.D-	4r	[2.A-\	.
.	4d-/ 4f 4a-	.	.
.	4d-/ 4f 4a-	.	.
=97	=97	=97	=97
2.AA-/ 2.F	4r	2.A-\]	.
.	4d-/ 4f 4a-	.	.
.	4d-/ 4f 4a-	.	.
=98	=98	=98	=98
4DD-:/ 4AA-: 4F:	4r	2A-\	f
4D-\	4d-/ 4f 4a-	.	.
4A-\	4r	4f\	.
=99	=99	=99	=99
4F\	4r	2d-\	.
4D-\	4f/ 4a- 4dd-	.	.
4F\	4r	4An\	.
!!LO:LB:g=original
=100	=100	=100	=100
2.GG-/ 2.G-	4r	2.c\	>
.	4e-/ 4g- 4cc	.	.
.	4e-/ 4g- 4cc	.	.
*	*v	*v	*
*	*clefF4	*
=101	=101	=101
*^	*	*
4E-/	2.EE-\	4B-\	.
4r	.	4G-\	.
4r	.	4BB-/	]]
*v	*v	*	*
=102	=102	=102
*	*^	*
2.AAA-/	4r	2F\	.
.	4A-/ 4c 4f	.	.
.	4r	4A-\	.
=103	=103	=103	=103
2.AA-/	4r	2F\	>
.	4A-/ 4c 4f	.	.
.	4G-/ 4c 4e-	4E-\	.
=104	=104	=104	=104
*^	*	*	*
4r	2.DD-\	4r	2.D-\	.
4FF/	.	4F/ 4A- 4d-	.	.
4AA-/	.	4F/ 4A- 4d-	.	.
*v	*v	*	*	*
*	*v	*v	*
=105	=105	=105
2.D-/	4F\	] <
.	4A-\	.
.	4d-\	[[
*	*clefG2	*
!!LO:PB:g=original
=106	=106	=106
*	*^	*
!	!LO:TX:i:a:t=poco piu mosso	!	!LO:DY:rj
2.DD-/ 2.AA-	4r	2f\	f
.	4a-/ 4dd- 4ff	.	.
.	4r	4e-\	.
=107	=107	=107	=107
2.FF/ 2.D-	4r	2d-\	.
.	4f/ 4a- 4dd-	.	.
.	4r	4c\	.
=108	=108	=108	=108
2.GG-/ 2.D-	4r	2.B-\	.
.	4d-/ 4g- 4b-	.	.
.	4d-/ 4g- 4b-	.	.
*	*v	*v	*
=109	=109	=109
2.EE-/ 2.G-	4B-/	.
.	4An/	.
.	4B-/	.
=110	=110	=110
*	*^	*
2.CC/ 2.C	4r	2e-\	.
.	4g-/ 4a- 4ee-	.	.
.	4r	4d-\	.
=111	=111	=111	=111
2.AAA-/ 2.AA-	4r	2c\	.
.	4g-/ 4a- 4cc	.	.
.	4r	4B-\	.
!!LO:LB:g=original
=112	=112	=112	=112
2.DD-:/ 2.AA-: 2.F:	4r	2.A-\	.
.	4d-/ 4f 4a-	.	.
.	4d-/ 4f 4a-	.	.
*	*v	*v	*
=113	=113	=113
!	!LO:TX:i:b:t=meno mosso	!
2.FF/ 2.D-	4A-/	.
.	4Gn/	.
.	4A-/	.
=114	=114	=114
*	*^	*
2.BBB-/	4r	2.d-\	.
.	4f/ 4b- 4dd-	.	.
.	4f/ 4b- 4dd-	.	.
*	*v	*v	*
=115	=115	=115
2.BB-/ 2.D-	4F/	.
.	4En/	.
.	4F/	.
=116	=116	=116
*	*^	*
2.EEE-/ 2.EE-	4r	2.c\	>
.	4e-/ 4gn 4cc	.	.
.	4e-/ 4g 4cc	.	.
=117	=117	=117	=117
2.D-\ 2.E- 2.Gn	4r	2.B-\	.
.	4dn/ 4gn 4b-	.	.
.	4d/ 4g 4b-	.	]
=118	=118	=118	=118
2.AAA-/	4r	2.A-\	.
.	4c/ 4e- 4a-	.	.
.	4c/ 4e- 4a-	.	.
!!LO:LB:g=original
=119	=119	=119	=119
2.AA-/ 2.C	4r	2E-\	.
.	4G-/ 4c 4e-	.	.
.	4r	4En\	.
=120	=120	=120	=120
2.DD-/ 2.AA-	4r	2.F\	.
.	4A-/ 4d- 4f	.	.
.	4A-/ 4d- 4f	.	.
*	*v	*v	*
=121	=121	=121
2.D-\	4F/	<
!	!LO:TX:i:b:t=accelerando	!
.	4A-/	.
.	4d-/	.
=122	=122	=122
*	*^	*
2.DD-/ 2.AA-	4r	2f\	.
.	4a-/ 4dd- 4ff	.	[
.	4r	4e-\	.
=123	=123	=123	=123
2.FF/ 2.D-	4r	2d-\	.
.	4f/ 4a- 4dd-	.	.
.	4r	4c\	.
=124	=124	=124	=124
2.GG-/ 2.D-	4r	2.B-\	.
.	4d-/ 4g- 4b-	.	.
.	4d-/ 4g- 4b-	.	.
*	*v	*v	*
!!LO:LB:g=original
=125	=125	=125
2.EE-/ 2.G-	4B-/	.
.	4An/	.
.	4B-/	.
=126	=126	=126
*	*^	*
2.CC/ 2.C	4r	2e-\	.
.	4g-/ 4a- 4ee-	.	.
.	4r	4d-\	.
=127	=127	=127	=127
2.AAA-/ 2.AA-	4r	2c\	.
.	4g-/ 4a- 4cc	.	.
.	4r	4B-\	.
=128	=128	=128	=128
2.DD-:/ 2.AA-: 2.F:	4r	2.A-\	.
.	4d-/ 4f 4a-	.	.
.	4d-/ 4f 4a-	.	.
*	*v	*v	*
=129	=129	=129
2.FF/ 2.D-	4A-/	.
.	4Gn/	.
.	4A-/	.
=130	=130	=130
*	*^	*
2.BBB-/	4r	2.d-\	.
.	4f/ 4b- 4dd-	.	.
!	!LO:TX:i:b:t=rallentando	!	!
.	4f/ 4b- 4dd-	.	.
*	*v	*v	*
=131	=131	=131
2.BB-/ 2.D-	4F/	.
.	4En/	.
.	4F/	.
!!LO:LB:g=original
=132	=132	=132
*	*^	*
2.EEE-/ 2.EE-	4r	2.c\	.
.	4e-/ 4gn 4cc	.	.
.	4e-/ 4g 4cc	.	>
=133	=133	=133	=133
2.D-\ 2.E- 2.Gn	4r	2.B-\	.
.	4d-/ 4gn 4b-	.	.
.	4d-/ 4g	.	.
=134	=134	=134	=134
2.AAA-/ 2.AA-	4r	2.f\	.
.	4a-/ 4cc 4ff	.	.
.	4a-/ 4cc 4ff	.	.
=135	=135	=135	=135
2.E-\ 2.G- 2.A- 2.c	4r	2.e-\	.
.	4g-/ 4cc 4ee-	.	.
.	4g-/ 4cc 4ee-	.	.
=136	=136	=136	=136
4DD-:/ 4AA-: 4F:	4r	2.d-\	.
4D-\	4f/ 4a- 4dd-	.	.
4F\	4f/ 4a- 4dd-	.	.
*	*v	*v	*
=137	=137	=137
4d-\	8r	]
.	8a-/	.
.	(8qbn/	.
2r	4.an/)	.
.	8a-X/	.
=138||	=138||	=138||
*k[bnenandngnf#c#g#d#]	*k[bnenandngnf#c#g#d#]	*
!!LO:PB:g=original
!	!LO:TX:i:a:t=arioso	!
4BBB#X/ 4BB#X	2.d#/	p
4D#\ 4F# 4G# 4B#X	.	.
4D#\ 4F# 4G# 4B#	.	.
=139	=139	=139
4GGG#/ 4GG#	8r	.
.	8d#/	.
.	(8qf#/	.
4D#\ 4F# 4G#	4.e/)	.
4D#\ 4F# 4G#	.	.
.	8B#X/	.
=140	=140	=140
4CC#/ 4C#	[2.c#/	<
4E\ 4G#	.	.
4E\ 4G#	.	.
=141	=141	=141
4C#/	4c#/]	.
4E\ 4G#	4.d#/	.
4E\ 4G#	.	.
.	8e/	.
=142	=142	=142
4FF#/ 4F#	[2.f#/	.
4A\ 4c#	.	.
4A\ 4c#	.	.
=143	=143	=143
4F#\	4f#/]	.
4A\ 4c#	4.g#/	.
4A\ 4c#	.	.
.	(8qb/	.
.	8a/)	[[
!!LO:LB:g=original
=144	=144	=144
4CC#/ 4C#	2.g#/	>]
4E\ 4G# 4c#	.	.
4E\ 4G# 4c#	.	.
=145	=145	=145
4C#/	8r	<
.	8g#/	.
.	(8qb/	.
4E\ 4G# 4c#	4.a/)	.
4E\ 4G# 4c#	.	.
.	8g#/	.
=146	=146	=146
4BBB#X/ 4BB#X	2.f#/ 2.dd#	.
4F#\ 4G# 4B#X	.	[ >
4F#\ 4G# 4B#	.	]
=147	=147	=147
4D#\	8r	.
.	8g#/	.
.	(8qb/	.
4F#\ 4G# 4B#X	4.a/)	.
4F#\ 4G# 4B#	.	.
.	8g#/	.
=148	=148	=148
4CC#/ 4C#	2.e/ 2.cc#	>]
4E\ 4G# 4c#	.	.
4E\ 4G# 4c#	.	.
=149	=149	=149
4C#/	8r	.
.	8g#/	.
.	(8qb/	.
4E\ 4G# 4c#	4.a/)	.
4E\ 4G# 4c#	.	.
.	8g#/	.
!!LO:LB:g=original
=150	=150	=150
4AAA/ 4AA	[2.c#/ [2.f#	.
4F#\ 4A	.	.
4F#\ 4A	.	.
=151	=151	=151
4C#/	4c#/] 4f#]	>
4F#\ 4A	4.e/	.
4F#\ 4A	.	.
.	8f#/	.
=152	=152	=152
4GGG#/ 4GG#	2.B#X/ 2.g#	.
4GG#/ 4D#	.	.
4BB#X/	.	.
=153	=153	=153
4G#\	8r	.
.	8g#/	]
.	(8qb/	.
2r	4.a/)	.
.	8g#/	.
=154	=154	=154
4BBB#X/ 4BB#X	2.d#/	.
4D#\ 4F# 4G# 4B#X	.	.
4D#\ 4F# 4G# 4B#	.	.
=155	=155	=155
4GGG#/ 4GG#	8r	.
.	8d#/	.
.	(8qf#/	.
4D#\ 4F# 4G#	4.e/)	.
4D#\ 4F# 4G#	.	.
.	8B#X/	.
!!LO:LB:g=original
=156	=156	=156
4CC#/ 4C#	[2.c#/	.
4E\ 4G#	.	.
4E\ 4G#	.	.
=157	=157	=157
4C#/	4c#/]	.
4E\ 4G#	4.d#/	.
4E\ 4G#	.	.
.	8e/	.
=158	=158	=158
4FF#/ 4F#	[2.f#/	<
4A\ 4c#	.	.
4A\ 4c#	.	.
=159	=159	=159
4F#\	4f#/]	.
4A\ 4c#	4.g#/	.
4A\ 4c#	.	.
.	(8qb/	.
.	8a/)	[[
=160	=160	=160
4CC#/ 4C#	2.g#/	>]
4E\ 4G# 4c#	.	.
4E\ 4G# 4c#	.	.
=161	=161	=161
4C#/	8r	<
.	8g#/	.
.	(8qb/	.
4E\ 4G# 4c#	4.a/)	.
4E\ 4c#	.	.
.	8g#/	.
=162	=162	=162
4BBB#X/ 4BB#X	2.f#/ 2.dd#	.
4F#\ 4G# 4B#X	.	.
4F#\ 4G# 4B#	.	[[
!!LO:LB:g=original
=163	=163	=163
4GG#/	8r	<
.	8g#/	.
.	(8qb/	.
4F#\ 4G# 4B#X	4.a/)	.
4F#\ 4G# 4B#	.	.
.	8g#/	.
=164	=164	=164
4CC#/ 4C#	2.e/ 2.g# 2.cc# 2.ee	.
4E\ 4G# 4c#	.	.
4E\ 4G# 4c#	.	[[
=165	=165	=165
4FFF#/ 4FF#	4r	f
2F#\ 2A 2c#	4f#/ 4a 4cc# 4ee	>
.	4dd#\	.
=166	=166	=166
4GGG#/ 4GG#	4.e/ 4.g# 4.dd#	.
2E\ 2G# 2c#	.	.
.	8cc#/L	.
.	8g#/	.
.	8e/J	]]
=167	=167	=167
4GGG#/	4r	.
2GG#/	4.F#/ 4.B#X 4.e	>
.	8d#/	.
=168	=168	=168
4CC#/	[2.E/ [2.G# [2.c#	.
4EE/	.	.
4GG#/	.	.
=169	=169	=169
4C#/	4E/] 4G#] 4c#]	.
2r	4r	]
.	4B/	.
!!LO:PB:g=original
=170||	=170||	=170||
2.G#\	2.B/ 2.e 2.b	fp
=171	=171	=171
2.F##X\	2.A#X/ 2.e 2.a#X	.
=172	=172	=172
2.G#\	2.B/ 2.e 2.b	.
=173||	=173||	=173||
*	*^	*
4EE/ 4E	2c#/ 2cc#	4r	.
2E\ 2G#	.	4e\ 4g#	.
.	4B/ 4e 4g# 4b	4ryy	.
*	*v	*v	*
=174	=174	=174
4EE#X/	4B/ 4dn 4fn 4b	.
2E#X\	4.A/ 4.d 4.f 4.a	.
.	8G#/ 8d 8f 8g#	.
=175	=175	=175
*	*^	*
4FF#/	2.A/ 2.a	4r	.
2F#\	.	4c#\ 4f#	.
.	.	4c#\ 4f#	.
*	*v	*v	*
=176	=176	=176
4FF#:/ 4C#: 4A:	4c#/ 4f# 4cc#	<
4G#\	4B#X/ 4f# 4b#X	.
4A\	4c#/ 4f# 4cc#	.
=177	=177	=177
*	*^	*
4BBB/ 4BB	2d#/ 2dd#	4r	[
2D#\ 2F# 2A 2B	.	4f#\ 4a	.
.	4c#/ 4f# 4a 4cc#	4ryy	.
*	*v	*v	*
!!LO:LB:g=original
=178	=178	=178
4DD#/	4c#/ 4f# 4a 4cc#	.
2D#\ 2F# 2A	4.B/ 4.d# 4.f# 4.b	.
.	8A#X/ 8d# 8f# 8a#X	.
=179	=179	=179
*	*^	*
2.EE:/ 2.BB: 2.G#:	2.B/ 2.b	4r	.
.	.	4e\ 4g#	.
.	.	4e\ 4g#	.
*	*v	*v	*
=180	=180	=180
4G#\	4e/ 4b 4ee	f
4F##X\	4d#/ 4b 4dd#	.
4G#\	4e/ 4b 4ee	.
=181	=181	=181
*	*^	*
4EE/ 4E	2f#/ 2ff#	4r	.
2E\ 2G# 2B	.	4g#\ 4b	.
.	4e/ 4g# 4b 4ee	4ryy	.
*	*v	*v	*
=182	=182	=182
4GG#/	4e/ 4g# 4b 4ee	.
2E\ 2G# 2B	4d#/ 4g# 4b 4dd#	.
.	4c##X/ 4g# 4b 4cc##X	.
=183	=183	=183
*	*^	*
4FF#/	2.d#/ 2.dd#	4r	>
2D#\ 2F# 2A 2B	.	4a\ 4b	.
.	.	4a\ 4b	.
*	*v	*v	*
=184	=184	=184
4BBB/ 4BB	4d#/ 4a 4b 4dd#	.
2D#\ 2F# 2A 2B	4c##X/ 4a 4b 4cc##X	.
.	4d#/ 4a 4b 4dd#	.
!!LO:LB:g=original
=185	=185	=185
*	*^	*
4FF#/	2e/ 2ee	4r	.
2D#\ 2F# 2A 2B	.	4a\ 4b	.
.	4d#/ 4a 4b 4dd#	4ryy	.
*	*v	*v	*
=186	=186	=186
4BBB/ 4BB	4d#/ 4a 4b 4dd#	.
2D#\ 2F# 2A	4.c#/ 4.f# 4.a 4.cc#	.
.	8B#X/ 8f# 8a 8b#X	]]
=187	=187	=187
*	*^	*
2.EE:/ 2.BB: 2.G#:	2.c#/ 2.cc#	4r	.
.	.	4e\ 4g#	.
.	.	4e\ 4g#	.
*	*v	*v	*
=188	=188	=188
4G#\	4B/ 4e 4b	.
4F##X\	4A#X/ 4e 4a#X	.
4G#\	4B/ 4e 4b	.
=189	=189	=189
*	*^	*
4EE/ 4E	2c#/ 2cc#	4r	.
2E\ 2G#	.	4e\ 4g#	.
.	4B/ 4e 4g# 4b	4ryy	.
*	*v	*v	*
=190	=190	=190
4EE#X/	4B/ 4dn 4fn 4b	.
2E#X\	4.A/ 4.d 4.f 4.a	.
.	8G#/ 8d 8f 8g#	.
!!LO:LB:g=original
=191	=191	=191
*	*^	*
4FF#/	2.A/ 2.a	4r	.
2F#\	.	4c#\ 4f#	.
.	.	4c#\ 4f#	.
*	*v	*v	*
=192	=192	=192
4FF#:/ 4C#: 4A:	4c#/ 4f# 4cc#	<
4G#\	4B#X/ 4f# 4b#X	.
4A\	4c#/ 4f# 4cc#	[[
=193	=193	=193
*	*^	*
4BBB/ 4BB	2d#/ 2dd#	4r	.
2D#\ 2F# 2A 2B	.	4f#\ 4a	.
.	4c#/ 4f# 4a 4cc#	4ryy	.
*	*v	*v	*
=194	=194	=194
4DD#/	4c#/ 4f# 4a 4cc#	.
2D#\ 2F# 2A	4.B/ 4.d# 4.f# 4.b	.
.	8A#X/ 8d# 8f# 8a#X	.
=195	=195	=195
*	*^	*
2.EE:/ 2.BB: 2.G#:	2.B/ 2.b	4r	.
.	.	4e\ 4g#	.
.	.	4e\ 4g#	.
*	*v	*v	*
=196	=196	=196
4G#\	4e/ 4b 4ee	f
4F##X\	4d#/ 4b 4dd#	.
4G#\	4e/ 4b 4ee	.
=197	=197	=197
*	*^	*
4EE/ 4E	2f#/ 2ff#	4r	.
2E\ 2G# 2B	.	4g#\ 4b	.
.	4e/ 4g# 4b 4ee	4ryy	.
*	*v	*v	*
!!LO:LB:g=original
=198	=198	=198
4GG#/	4e/ 4g# 4b 4ee	<
2E\ 2G# 2B	4.g#\ 4.gg#	.
.	8B#X/ 8b#X	[[
=199	=199	=199
*	*^	*
4AA/	2d#/ 2dd#	4r	>
2F#\ 2A	.	4f#\ 4a	.
.	4c#/ 4f# 4a 4cc#	4r	.
*	*v	*v	*
=200	=200	=200
2.FF#:/ 2.C#: 2.A:	4c#/ 4f# 4a 4cc#	.
.	4c#/ 4f# 4a	.
.	4c#/	.
=201	=201	=201
*	*^	*
2.BBB/	2G#/ 2g#	4r	.
.	.	4B/ 4d#	.
.	4B/ 4d# 4f# 4b	4ryy	.
=202	=202	=202	=202
2.BB/	2G#/ 2g#	4r	]
.	.	4B\ 4d#	.
.	4F#/ 4A 4d# 4f#	4ryy	.
*	*v	*v	*
=203	=203	=203
*ped	*	*
4EEE/ 4EE	4E/ 4G# 4B 4e	.
4E\ 4G# 4B	4e/ 4g# 4b 4ee	.
*clefG2	*	*
4e/ 4g# 4b	4ee\ 4gg# 4bb 4eee	.
=204	=204	=204
*	*8va	*
4ee;\ 4gg# 4bb	4eee;\ 4ggg# 4bbb 4eeee	.
!	!LO:TX:i:b:t=Fine.	!
2r	2r	.
*	*X8va	*
==	==	==
*-	*-	*-
!!!system-decoration: [(s1,s2)]
!!!RDF**kern: > = above
!!!RDF**kern: < = below
!!!ENC: Berenika Jozajtis
!!!END: 2023-08-28
!!!ENC: Leszek Kubiak
!!!END: 2023-09-29
